X: 17994
T: Hughie Travers'
R: reel
M: 4/4
K: Gmajor
|:Bc|dBBA B2GB|dBGB AGED|GABd g2ga|gedB A2Bc|
dBBA B2GB|dBGB AGED|GABd g2ga|gedB G2:|
* A2|Bdd2 edd2|edgd edBA|Bdef g2ga|gedB A2GA|
Bdd2 edd2|edgd edBA|Bdef g2ga|gedB G2 GA|
Bdd2 edd2|edgd edBA|Bdef g2ga|gedB A2Bc|
dBBA B2GB|dBGB AGED|GABd g2ga|gedB G2||

